Origami/48x48/apps/vectr.svg

<svg width="48" height="48" version="1.1" viewBox="0 0 48 48" xmlns="http://www.w3.org/2000/svg">
 <path d="m24 4a20 20 0 0 0 -20 20 20 20 0 0 0 20 20 20 20 0 0 0 20 -20 20 20 0 0 0 -20 -20z" style="fill:#4f4f4f"/>
 <path d="m4.0215 24.418a20 20 0 0 0 -0.0215 0.582 20 20 0 0 0 20 20 20 20 0 0 0 20 -20 20 20 0 0 0 -0.021 -0.418 20 20 0 0 1 -19.979 19.418 20 20 0 0 1 -19.978 -19.582z" opacity=".2"/>
 <path d="m24 4a20 20 0 0 0 -20 20 20 20 0 0 0 0.0215 0.418 20 20 0 0 1 19.978 -19.418 20 20 0 0 1 19.979 19.582 20 20 0 0 0 0.021 -0.582 20 20 0 0 0 -20 -20z" fill="#ffffff" style="opacity:.1"/>
 <path d="m17.714844 14.990298c-0.28395-5e-4 -0.573481 0.0098-0.859375 0.0098-1.671007-0.03585-3.34052 0.02183-5.011719 0-1.158548-0.0094-0.891961 1.447762-0.556641 2.060547 3.707464 6.775185 8.088193 14.363862 12.171875 21.515625 0.784641 1.187268 1.611104-0.425593 2.050782-1.115234 1.111217-1.742937 2.025706-3.569902 2.964843-5.396485 0.396662-1.227648-0.710707-2.171941-1.105468-3.212891-2.408822-4.387564-4.942511-8.692109-7.402344-13.041015-0.588664-0.724168-1.400105-0.818812-2.251953-0.820313zm12.005859 0.0098c-1.278608 0-0.464844 1.439453-0.464844 1.439453s1.917232 3.636254 3.021485 5.625c1.104254 1.988751 1.700005 0.275236 1.976562-0.275391 0.995024-1.981117 1.859216-4.046419 2.556641-5.417968 0.697425-1.371551-0.755859-1.371094-0.755859-1.371094z" style="opacity:.2"/>
 <path d="m17.714844 13.990234c-0.28395-5e-4 -0.573481 0.009766-0.859375 0.009766-1.671007-0.03585-3.34052 0.021828-5.011719 0-1.158548-0.0094-0.891961 1.447762-0.556641 2.060547 3.707464 6.775185 8.088193 14.363862 12.171875 21.515625 0.784641 1.187268 1.611104-0.425593 2.050782-1.115234 1.111217-1.742937 2.025706-3.569902 2.964843-5.396485 0.396662-1.227648-0.710707-2.171941-1.105468-3.212891-2.408822-4.387564-4.942511-8.692109-7.402344-13.041015-0.588664-0.724168-1.400105-0.818812-2.251953-0.820313zm12.005859 0.009766c-1.278608 0-0.464844 1.439453-0.464844 1.439453s1.917232 3.636254 3.021485 5.625c1.104254 1.988751 1.700005 0.275236 1.976562-0.275391 0.995024-1.981117 1.859216-4.046419 2.556641-5.417968 0.697425-1.371551-0.755859-1.371094-0.755859-1.371094h-6.333985z" style="fill:#cccccc"/>
 <path d="m17.714844 13.990234c-0.28395-5e-4 -0.573481 0.009766-0.859375 0.009766-1.671007-0.03585-3.34052 0.021828-5.011719 0-0.870936-0.007066-0.935065 0.813667-0.771484 1.482422 0.105911-0.284838 0.339166-0.48593 0.771484-0.482422 1.671199 0.02183 3.340712-0.03585 5.011719 0 0.285894 0 0.575425-0.010266 0.859375-0.009766 0.851848 0.001501 1.663289 0.096145 2.251953 0.820313 2.459833 4.348906 4.993522 8.653451 7.402344 13.041015 0.277623 0.732068 0.897866 1.418865 1.109375 2.1875 0.372888-1.215028-0.717401-2.153897-1.109375-3.1875-2.408822-4.387564-4.942511-8.692109-7.402344-13.041015-0.588664-0.724168-1.400105-0.818812-2.251953-0.820313zm12.005859 0.009766c-0.948965 0-0.744228 0.790373-0.576172 1.199219 0.107986-0.11764 0.281542-0.199219 0.576172-0.199219h6.333985s0.514576 0.005393 0.783203 0.298828c0.60065-1.290933-0.783203-1.298828-0.783203-1.298828h-6.333985z" style="fill:#ffffff;opacity:.2"/>
</svg>

<svg xmlns="http://www.w3.org/2000/svg" width="48" height="48" version="1.1" viewBox="0 0 48 48">
 <path style="fill:#4f4f4f" d="m24 4a20 20 0 0 0 -20 20 20 20 0 0 0 20 20 20 20 0 0 0 20 -20 20 20 0 0 0 -20 -20z"/>
 <path opacity=".2" d="m4.0215 24.418a20 20 0 0 0 -0.0215 0.582 20 20 0 0 0 20 20 20 20 0 0 0 20 -20 20 20 0 0 0 -0.021 -0.418 20 20 0 0 1 -19.979 19.418 20 20 0 0 1 -19.978 -19.582z"/>
 <path fill="#ffffff" style="opacity:0.1" d="m24 4a20 20 0 0 0 -20 20 20 20 0 0 0 0.0215 0.418 20 20 0 0 1 19.978 -19.418 20 20 0 0 1 19.979 19.582 20 20 0 0 0 0.021 -0.582 20 20 0 0 0 -20 -20z"/>
 <path style="opacity:0.2" d="m 17.714844,14.990298 c -0.28395,-5e-4 -0.573481,0.0098 -0.859375,0.0098 -1.671007,-0.03585 -3.34052,0.02183 -5.011719,0 -1.158548,-0.0094 -0.891961,1.447762 -0.556641,2.060547 3.707464,6.775185 8.088193,14.363862 12.171875,21.515625 0.784641,1.187268 1.611104,-0.425593 2.050782,-1.115234 1.111217,-1.742937 2.025706,-3.569902 2.964843,-5.396485 0.396662,-1.227648 -0.710707,-2.171941 -1.105468,-3.212891 -2.408822,-4.387564 -4.942511,-8.692109 -7.402344,-13.041015 -0.588664,-0.724168 -1.400105,-0.818812 -2.251953,-0.820313 z m 12.005859,0.0098 c -1.278608,0 -0.464844,1.439453 -0.464844,1.439453 0,0 1.917232,3.636254 3.021485,5.625 1.104254,1.988751 1.700005,0.275236 1.976562,-0.275391 0.995024,-1.981117 1.859216,-4.046419 2.556641,-5.417968 0.697425,-1.371551 -0.755859,-1.371094 -0.755859,-1.371094 z"/>
 <path style="fill:#cccccc" d="M 17.714844 13.990234 C 17.430894 13.989734 17.141363 14 16.855469 14 C 15.184462 13.96415 13.514949 14.021828 11.84375 14 C 10.685202 13.9906 10.951789 15.447762 11.287109 16.060547 C 14.994573 22.835732 19.375302 30.424409 23.458984 37.576172 C 24.243625 38.76344 25.070088 37.150579 25.509766 36.460938 C 26.620983 34.718001 27.535472 32.891036 28.474609 31.064453 C 28.871271 29.836805 27.763902 28.892512 27.369141 27.851562 C 24.960319 23.463998 22.42663 19.159453 19.966797 14.810547 C 19.378133 14.086379 18.566692 13.991735 17.714844 13.990234 z M 29.720703 14 C 28.442095 14 29.255859 15.439453 29.255859 15.439453 C 29.255859 15.439453 31.173091 19.075707 32.277344 21.064453 C 33.381598 23.053204 33.977349 21.339689 34.253906 20.789062 C 35.24893 18.807945 36.113122 16.742643 36.810547 15.371094 C 37.507972 13.999543 36.054688 14 36.054688 14 L 29.720703 14 z"/>
 <path style="fill:#ffffff;opacity:0.2" d="M 17.714844 13.990234 C 17.430894 13.989734 17.141363 14 16.855469 14 C 15.184462 13.96415 13.514949 14.021828 11.84375 14 C 10.972814 13.992934 10.908685 14.813667 11.072266 15.482422 C 11.178177 15.197584 11.411432 14.996492 11.84375 15 C 13.514949 15.02183 15.184462 14.96415 16.855469 15 C 17.141363 15 17.430894 14.989734 17.714844 14.990234 C 18.566692 14.991735 19.378133 15.086379 19.966797 15.810547 C 22.42663 20.159453 24.960319 24.463998 27.369141 28.851562 C 27.646764 29.58363 28.267007 30.270427 28.478516 31.039062 C 28.851404 29.824034 27.761115 28.885165 27.369141 27.851562 C 24.960319 23.463998 22.42663 19.159453 19.966797 14.810547 C 19.378133 14.086379 18.566692 13.991735 17.714844 13.990234 z M 29.720703 14 C 28.771738 14 28.976475 14.790373 29.144531 15.199219 C 29.252517 15.081579 29.426073 15 29.720703 15 L 36.054688 15 C 36.054688 15 36.569264 15.005393 36.837891 15.298828 C 37.438541 14.007895 36.054688 14 36.054688 14 L 29.720703 14 z"/>
</svg>
